src/24/actions/view-media-equalizer.svg

<svg xmlns="http://www.w3.org/2000/svg" viewBox="0 0 24 24">
  <defs id="defs3051">
    <style type="text/css" id="current-color-scheme">
      .ColorScheme-Text {
        color:#5d656b;
      }
      </style>
  </defs>
 <path style="fill:currentColor;fill-opacity:1;stroke:none" 
     d="M 16.5 7 C 15.845303 7 15.297456 7.417435 15.091797 8 L 4 8 L 4 9 L 15.091797 9 C 15.297802 9.58192 15.845763 10 16.5 10 C 17.154237 10 17.702198 9.58192 17.908203 9 L 20 9 L 20 8 L 17.908203 8 C 17.702544 7.417435 17.154697 7 16.5 7 z M 9.5 14 C 8.845299 14 8.2974579 14.41743 8.0917969 15 L 4 15 L 4 16 L 8.0917969 16 C 8.2978029 16.581925 8.84576 17 9.5 17 C 10.15424 17 10.702197 16.581925 10.908203 16 L 20 16 L 20 15 L 10.908203 15 C 10.702542 14.41743 10.154701 14 9.5 14 z "
     class="ColorScheme-Text"
     />
</svg>

<svg xmlns="http://www.w3.org/2000/svg" viewBox="0 0 24 24"><path d="M16.5 7a1.49 1.49 0 0 0-1.408 1H4v1h11.092a1.492 1.492 0 0 0 2.816 0H20V8h-2.092A1.49 1.49 0 0 0 16.5 7zm-7 7a1.49 1.49 0 0 0-1.408 1H4v1h4.092a1.492 1.492 0 0 0 2.816 0H20v-1h-9.092A1.49 1.49 0 0 0 9.5 14z" fill="currentColor" color="#5d656b"/></svg>
